X: 71
T: If all the World Were Paper
M:6/8
L:1/8
Q:160
S:Playford
O:Manuscript
A:English
K:D
A|B2 A B2 c|d3 D3|F2 E F2F G| A3 A2 F| G2 F G2 A|B2 G D2 d|e2 A B2 c|d3 d3:|

